build/system/OpenInFullOutline.svg

<svg xmlns="http://www.w3.org/2000/svg" fill="none" viewBox="0 0 24 24" focusable="false"><path d="M0 0H24V24H0z"/><path fill="#74767B" fill-rule="evenodd" d="M4.64661 8.80418C4.28763 8.80418 3.99661 8.51317 3.99661 8.15418L3.99661 5.35366C3.99661 4.60808 4.60103 4.00366 5.34661 4.00366L8.14713 4.00366C8.50611 4.00366 8.79713 4.29468 8.79713 4.65366C8.79713 5.01265 8.50611 5.30366 8.14713 5.30366L6.21572 5.30366L8.90257 7.9905C9.15642 8.24434 9.15642 8.65589 8.90258 8.90973C8.64874 9.16358 8.23718 9.16358 7.98334 8.90974L5.29661 6.22303L5.29661 8.15418C5.29661 8.51317 5.0056 8.80418 4.64661 8.80418ZM6.21546 18.6925L8.14661 18.6925C8.5056 18.6925 8.79661 18.9836 8.79661 19.3425C8.79661 19.7015 8.5056 19.9925 8.14661 19.9925L5.34609 19.9925C4.60051 19.9925 3.99609 19.3881 3.99609 18.6425L3.99609 15.842C3.99609 15.483 4.28711 15.192 4.64609 15.192C5.00508 15.192 5.29609 15.483 5.29609 15.842L5.29609 17.7734L7.98293 15.0866C8.23677 14.8327 8.64832 14.8327 8.90217 15.0866C9.15601 15.3404 9.15601 15.752 8.90217 16.0058L6.21546 18.6925ZM18.7012 17.781L18.7012 15.8499C18.7012 15.4909 18.9922 15.1999 19.3512 15.1999C19.7102 15.1999 20.0012 15.4909 20.0012 15.8499L20.0012 18.6504C20.0012 19.396 19.3968 20.0004 18.6512 20.0004L15.8507 20.0004C15.4917 20.0004 15.2007 19.7094 15.2007 19.3504C15.2007 18.9914 15.4917 18.7004 15.8507 18.7004L17.7821 18.7004L15.0952 16.0135C14.8414 15.7597 14.8414 15.3481 15.0952 15.0943C15.349 14.8405 15.7606 14.8405 16.0144 15.0943L18.7012 17.781ZM15.1963 4.65366C15.1963 4.29468 15.4873 4.00366 15.8463 4.00366L18.6468 4.00366C19.3924 4.00366 19.9968 4.60808 19.9968 5.35366L19.9968 8.15418C19.9968 8.51316 19.7058 8.80418 19.3468 8.80418C18.9878 8.80418 18.6968 8.51316 18.6968 8.15418L18.6968 6.22277L16.01 8.90963C15.7561 9.16347 15.3446 9.16347 15.0907 8.90963C14.8369 8.65579 14.8369 8.24423 15.0907 7.99039L17.7774 5.30366L15.8463 5.30366C15.4873 5.30366 15.1963 5.01265 15.1963 4.65366Z"/></svg>

<svg xmlns="http://www.w3.org/2000/svg" fill="none" viewBox="0 0 24 24" focusable="false"><path fill="#74767B" fill-rule="evenodd" d="M4.64 8.8c-.36 0-.65-.29-.65-.65v-2.8C3.99 4.6 4.6 4 5.34 4h2.8c.36 0 .65.29.65.65s-.29.65-.65.65H6.21L8.9 7.99c.25.25.25.66 0 .91a.64.64 0 0 1-.92 0L5.29 6.22v1.93c0 .36-.29.65-.65.65m1.57 9.89h1.93c.36 0 .65.29.65.65s-.29.65-.65.65h-2.8c-.74 0-1.35-.61-1.35-1.35v-2.8c0-.36.29-.65.65-.65s.65.29.65.65v1.93l2.69-2.69c.25-.25.66-.25.92 0 .25.26.25.67 0 .92zm12.49-.91v-1.94c0-.35.29-.65.65-.65.35 0 .65.3.65.65v2.81c0 .74-.61 1.35-1.35 1.35h-2.8c-.36 0-.65-.3-.65-.65 0-.36.29-.65.65-.65h1.93l-2.69-2.69a.66.66 0 0 1 0-.92c.25-.25.67-.25.92 0zM15.19 4.65c0-.36.29-.65.65-.65h2.8c.75 0 1.35.6 1.35 1.35v2.8c0 .36-.29.65-.65.65s-.65-.29-.65-.65V6.22L16 8.9c-.25.26-.66.26-.91 0a.63.63 0 0 1 0-.91l2.68-2.69h-1.93c-.36 0-.65-.29-.65-.65"/></svg>
